X: 132
T:Humber Jumber (The Frisky)
% Nottingham Music Database
S:Lesley Dolman, via EF
M:6/8
K:G
P:A
D|"G"G2G G2B|"G"d2d d2d|"C"cBA "A7"B2G|"D7"A2D D3|"G"G2G G2B|"G"d2d d2d|\
"C"cde "D7"d2c|"G"B2G G2:|
P:B
G|"C"e2e e2e|"G"d2d d2d|"Am"cBA B2G|"D7"A2D D3|"G"G2G G2B|"G"d2d d2d|\
"C"cde "D7"d2c|"G"B2G G2:|<end>
<start>
